polaris-icons/icons/new-icons/MobileHamburgerMajor.svg

<svg width="20" height="20" viewBox="0 0 20 20" fill="none" xmlns="http://www.w3.org/2000/svg">
<path fill-rule="evenodd" clip-rule="evenodd" d="M3 4.75C3 4.33579 3.33579 4 3.75 4H16.25C16.6642 4 17 4.33579 17 4.75C17 5.16421 16.6642 5.5 16.25 5.5H3.75C3.33579 5.5 3 5.16421 3 4.75Z" fill="#4A4A4A"/>
<path fill-rule="evenodd" clip-rule="evenodd" d="M3 10C3 9.58579 3.33579 9.25 3.75 9.25H16.25C16.6642 9.25 17 9.58579 17 10C17 10.4142 16.6642 10.75 16.25 10.75H3.75C3.33579 10.75 3 10.4142 3 10Z" fill="#4A4A4A"/>
<path fill-rule="evenodd" clip-rule="evenodd" d="M3 15.25C3 14.8358 3.33579 14.5 3.75 14.5H16.25C16.6642 14.5 17 14.8358 17 15.25C17 15.6642 16.6642 16 16.25 16H3.75C3.33579 16 3 15.6642 3 15.25Z" fill="#4A4A4A"/>
</svg>

<svg viewBox="0 0 20 20" xmlns="http://www.w3.org/2000/svg"><path fill-rule="evenodd" d="M3 4.75a.75.75 0 0 1 .75-.75h12.5a.75.75 0 0 1 0 1.5h-12.5a.75.75 0 0 1-.75-.75Z" fill="#5C5F62"/><path fill-rule="evenodd" d="M3 10a.75.75 0 0 1 .75-.75h12.5a.75.75 0 0 1 0 1.5h-12.5a.75.75 0 0 1-.75-.75Z" fill="#5C5F62"/><path fill-rule="evenodd" d="M3 15.25a.75.75 0 0 1 .75-.75h12.5a.75.75 0 0 1 0 1.5h-12.5a.75.75 0 0 1-.75-.75Z" fill="#5C5F62"/></svg>
